X:4533
T:My Sorrow is Greater Than I Can Tell
O:england
B:Joyce, P. W.; "Old Irish Folk Music and Songs"
R:song air
H:From James Keane of Kilkee, 1876
L:1/8
M:6/8
K:C
"Slow and Tender"
A/>B/|cBa BGE|D/E/GG G2 A>B|cBA BeA/G/|EAA A2 A/B/|
c/B/c/d/e/^f/ ged|e/d/BA G2 A>B|cd/c/B/A/ BeA/G/|EAA A2||
a/b/|c'ba bag|egg g2 a/b/|c'ba bag|eaa/>b/ a2 A/>B/|
c/B/c/d/e/^f/ ged|BdB/A/ G2 A/>B/|cd/c/B/A/ BeA/>G/|EAA A2|]


